X: 1
T: Plas Teg - Y Bala
R: hornpipe
M: 4/4
L: 1/8
K: Gmaj
d>c|(3Bcd G>B D>G G,>C|B,>D G>A B>G D>B,|C>E G>c (3BAG (3ABc|A>F D>E D>B,C>A,|
B,/C/D G>A B>d B>G|c>B A>G F>E D>c|(3Bcd (3cBA B>G A>F|G>B A>F G2:|
d>c|(3Bcd g>f g>d B>d|c>e g>e d>f a>f|(3gfe(3dcB c>e c>A|d>e f>g a>f d>c|
(3Bcd (3gfg b>g d>B|c>e c>A d>f a>f|(3bag (3fed (3cBA (3def|g>d B>d G2:|

